X:2551
T:Cantar de Ronda (CT 119)
R:Ronda
C:Tradicional
S:Música Tradicional Asturiana, (C) Tello & Tito. Asturies, 2001.
S:http://pagina.de/MusTradAst <telloytito@asturies.org>
N:Canción de Ronda, transcrita en Avilés.
O:Avilés
A:Asturies
Z:Cancioneru de Torner 119
M:2/4
L:1/8
Q:1/4=80
W:Calle la del Rivero,
W:camín del Cristo ¡que ai!
W:camín del Cristo,
W:la pasean los frailes;
W:¿que adónde va la mi morena,
W:que adónde va?
W:La pasean los frailes
W:de San Francisco, ¡que ai!
K:G
d|dd ef|g4|f4|g2 f>e|(ed) Bc|(d3 e|c(3d/c/B/ cd|B2) z2|
d2 d>e|(ed) Bc|d4|(e>d) cB|c2 A>B|c3 c|d>c BA|B2 G>A|B2 d2|A2 zd|
dd ef|g4|f4|g2 f>e|(ed) Bc|(d3 e|c(3d/c/B/ cd|B2) z2||


